!!!OTL: 524. Prinz Eugen vor Belgrad. 1717.
!!!ARE: Europa, Mitteleuropa, Deutschland
!!!SCT: E0324
!!!TXL: @@DE
!!!YEM: Copyright 1995, estate of Helmut Schaffrath.
**kern	**text
*ICvox	*
!! 2+3 metric grouping
*M5/4	*
*k[f#]	*
*G:	*
!LO:TX:a:t=Mäßig und nachdruecklich.	!
!LO:TX:a:t=Jn ganʒ Deutſchland bekannte Volksweiſe.	!
!LO:TX:a:t=Notation von Erk.	!
{8d	Prinʒ
8d	Eu-
=1	=1
4.g	-gen,
8g	der
8g	ed-
8a	-le
8b/	Rit-
4b/	-ter,
8r}	.
=2	=2
{8g	wollt'
8a	dem
4b	Kai-
4dd	-ſer
8dd	wied'-
8cc	-rum
8cc	krie-
8b}	-gen
=3	=3
{8a	Stadt
8g	und
8a	Fe-
8b	-ſtung
8cc	Bel-
8b	-ge-
4.a;	-rad.
8r}	.
=4||	=4||
!LO:TX:a:t=a tempo	!
{8dd	Er
8cc	ließ
4b	ſchla-
4dd	-gen
8ee	ei-
8dd	-nen
8cc	Bru-
8b}	-cken,
=5	=5
{8a	daß
8g	man
4a	kunnt'
4cc	hin-
8dd	-ü-
8cc	-ber
8b	ru-
8a}	-cken
=6	=6
{8g	mit
8g	d'r_Ar-
4g	-mee
4b/	wohl
16bqq	.
8a	für
8a	die
4g;}	Stadt.
=7	=7
{8dd	Er
8cc	ließ
4b	ſchla-
4dd	-gen
8ee	ei-
8dd	-nen
8cc	Bru-
8b}	-cken,
=8	=8
{8a	daß
8g	man
4a	kunnt'
4cc	hin-
8dd	-ü-
8cc	-ber
8b	ru-
8a}	-cken
=9	=9
{8g	mit
8g	d'r_Ar-
4g	-mee
4b/	wohl
16bqq	.
8a	für
8a	die
4g;}	Stadt.
==	==
!!!AGN: historisches Lied, Prinz Eugen (1717)
!! +++ nachtraelich 5/4! eingetragen ++++++
!!!ONB: ESAC (Essen Associative Code) Database: ERK1
!!!AMT: simple quintuple
!!!AIN: vox
!!!EED: Helmut Schaffrath
!!!EEV: 1.0
!!!GTL: Historische Lieder
!!!URL-scan: https://rosdok.uni-rostock.de/mcrviewer/recordIdentifier/rosdok_ppn745177662/iview2/phys_0138.iview2?x=-544.0401362767932&y=186.28693991864566&scale=0.4722427387526479&rotation=0&layout=singlePageLayout
!!!ENC: Anna Maria Matuszewska
!!!EEV: 2024/06/12
*-	*-
